pwa/public/bubbles1.svg

<svg width="68" height="440" viewBox="0 0 68 440" fill="none" xmlns="http://www.w3.org/2000/svg">
<path d="M46.0079 156.867L46.0076 156.878V156.883C45.8181 165.334 39.3145 173.526 29.1514 173.703C20.7548 173.847 12.5664 167.156 12.3122 157.051L12.3121 157.051C12.0595 147.091 20.5997 140.049 29.0429 140C37.4869 139.952 46.2225 146.999 46.0079 156.867ZM22.388 163.146C24.2992 164.547 26.8 165.316 29.3244 165.285L29.3258 165.291C35.322 165.205 39.5038 161.36 39.6195 157.03C39.691 154.458 38.2779 152.341 36.3199 150.912C34.3663 149.486 31.7863 148.67 29.2564 148.68C26.7311 148.689 24.1744 149.513 22.2452 150.951C20.3094 152.394 18.9336 154.52 19.0152 157.096L19.0153 157.099C19.102 159.651 20.4649 161.736 22.388 163.146Z" stroke="white" stroke-width="2"/>
<path d="M41.9482 273.448C36.3798 273.352 32.8331 268.856 32.7318 264.245C32.616 258.814 37.4076 254.976 42.0158 255C46.624 255.024 51.3142 258.866 51.1743 264.337C51.0344 269.855 46.5564 273.524 41.9482 273.443V273.448Z" fill="white"/>
<path d="M35.4043 216.307C31.9914 216.248 29.8177 213.492 29.7556 210.667C29.6846 207.337 32.6214 204.985 35.4457 205C38.2701 205.015 41.1448 207.37 41.059 210.723C40.9733 214.105 38.2287 216.354 35.4043 216.304V216.307Z" fill="white"/>
<circle cx="29.7543" cy="59.7543" r="29.7543" fill="white" fill-opacity="0.48"/>
<circle cx="47.3093" cy="114.555" r="17.555" fill="white" fill-opacity="0.48"/>
<circle cx="19.3403" cy="190.034" r="8.03365" fill="white" fill-opacity="0.48"/>
<circle cx="35.1101" cy="235.497" r="12.4968" fill="white" fill-opacity="0.48"/>
<path d="M47.7887 -10.9998C39.31 -10.956 30.6949 -3.89249 30.95 6.17327C31.2051 16.3178 39.4375 23.0663 47.9162 22.9175C58.1452 22.738 64.6801 14.4753 64.8605 5.99822C65.0759 -3.98877 56.2674 -11.0436 47.7887 -10.9998ZM47.9074 16.8868C43.1052 16.9699 38.4436 13.1405 38.2985 7.38554C38.1534 1.67869 43.0436 -2.3126 47.8458 -2.33449C52.6525 -2.36074 57.6351 1.6393 57.5119 7.29801C57.4108 12.0989 53.7036 16.7861 47.903 16.8868H47.9074Z" fill="white"/>
</svg>

<svg xmlns="http://www.w3.org/2000/svg" width="68" height="440" fill="none" xmlns:v="https://vecta.io/nano"><path d="M46.008 156.867v.011.005c-.189 8.451-6.693 16.643-16.856 16.82-8.397.144-16.585-6.547-16.839-16.652h0c-.253-9.96 8.288-17.002 16.731-17.051s17.18 6.999 16.965 16.867zm-23.62 6.279c1.911 1.401 4.412 2.17 6.936 2.139l.001.006c5.996-.086 10.178-3.931 10.294-8.261.072-2.572-1.342-4.689-3.3-6.118s-4.534-2.242-7.063-2.232-5.082.833-7.011 2.271c-1.936 1.443-3.312 3.569-3.23 6.145v.003c.087 2.552 1.45 4.637 3.373 6.047z" stroke="#fff" stroke-width="2"/><g fill="#fff"><path d="M41.948 273.448c-5.568-.096-9.115-4.592-9.216-9.203-.116-5.431 4.676-9.269 9.284-9.245s9.298 3.866 9.159 9.337c-.14 5.518-4.618 9.187-9.226 9.106v.005zm-6.544-57.141c-3.413-.059-5.587-2.815-5.649-5.64-.071-3.33 2.866-5.682 5.69-5.667s5.699 2.37 5.613 5.723c-.086 3.382-2.83 5.631-5.655 5.581v.003z"/><circle cx="29.754" cy="59.754" r="29.754" fill-opacity=".48"/><circle cx="47.309" cy="114.555" r="17.555" fill-opacity=".48"/><circle cx="19.34" cy="190.034" r="8.034" fill-opacity=".48"/><circle cx="35.11" cy="235.497" r="12.497" fill-opacity=".48"/><path d="M47.789-11c-8.479.044-17.094 7.107-16.839 17.173.255 10.145 8.488 16.893 16.966 16.744 10.229-.18 16.764-8.442 16.944-16.919.215-9.987-8.593-17.042-17.072-16.998zm.119 27.887c-4.802.083-9.464-3.746-9.609-9.501-.145-5.707 4.745-9.698 9.547-9.72s9.789 3.974 9.666 9.633c-.101 4.801-3.808 9.488-9.609 9.589h.004z"/></g></svg>
